static/img/kroki/f5e6bf0486e3ff5b5ffc7a70ccb9ec39.svg

<?xml version="1.0" encoding="us-ascii" standalone="no"?><svg xmlns="http://www.w3.org/2000/svg" xmlns:xlink="http://www.w3.org/1999/xlink" contentStyleType="text/css" height="252px" preserveAspectRatio="none" style="width:410px;height:252px;" version="1.1" viewBox="0 0 410 252" width="410px" zoomAndPan="magnify"><defs/><g><!--class aws_kms_key--><g id="elem_aws_kms_key"><rect codeLine="23" fill="#3D176E" height="39.7891" id="aws_kms_key" rx="2.5" ry="2.5" style="stroke:#000D19;stroke-width:0.5;" width="158" x="104" y="206.58"/><ellipse cx="119" cy="226.4745" fill="#ADD1B2" rx="11" ry="11" style="stroke:#181818;stroke-width:1.0;"/><path d="M121.9688,232.1152 Q121.3906,232.412 120.75,232.5527 Q120.1094,232.7089 119.4063,232.7089 Q116.9063,232.7089 115.5781,231.0683 Q114.2656,229.412 114.2656,226.287 Q114.2656,223.162 115.5781,221.5058 Q116.9063,219.8495 119.4063,219.8495 Q120.1094,219.8495 120.75,220.0058 Q121.4063,220.162 121.9688,220.4589 L121.9688,223.1777 Q121.3438,222.5995 120.75,222.3339 Q120.1563,222.0527 119.5313,222.0527 Q118.1875,222.0527 117.5,223.1308 Q116.8125,224.1933 116.8125,226.287 Q116.8125,228.3808 117.5,229.4589 Q118.1875,230.5214 119.5313,230.5214 Q120.1563,230.5214 120.75,230.2558 Q121.3438,229.9745 121.9688,229.3964 L121.9688,232.1152 Z " fill="#000000"/><text fill="#D9B8FF" font-family="Helvetica" font-size="17" lengthAdjust="spacing" textLength="116" x="138" y="232.3598">aws_kms_key</text></g><!--class aws_rds_cluster--><g id="elem_aws_rds_cluster"><rect codeLine="26" fill="#3D176E" height="39.7891" id="aws_rds_cluster" rx="2.5" ry="2.5" style="stroke:#000D19;stroke-width:0.5;" width="174" x="7" y="7"/><ellipse cx="22" cy="26.8945" fill="#ADD1B2" rx="11" ry="11" style="stroke:#181818;stroke-width:1.0;"/><path d="M24.9688,32.5352 Q24.3906,32.832 23.75,32.9727 Q23.1094,33.1289 22.4063,33.1289 Q19.9063,33.1289 18.5781,31.4883 Q17.2656,29.832 17.2656,26.707 Q17.2656,23.582 18.5781,21.9258 Q19.9063,20.2695 22.4063,20.2695 Q23.1094,20.2695 23.75,20.4258 Q24.4063,20.582 24.9688,20.8789 L24.9688,23.5977 Q24.3438,23.0195 23.75,22.7539 Q23.1563,22.4727 22.5313,22.4727 Q21.1875,22.4727 20.5,23.5508 Q19.8125,24.6133 19.8125,26.707 Q19.8125,28.8008 20.5,29.8789 Q21.1875,30.9414 22.5313,30.9414 Q23.1563,30.9414 23.75,30.6758 Q24.3438,30.3945 24.9688,29.8164 L24.9688,32.5352 Z " fill="#000000"/><text fill="#D9B8FF" font-family="Helvetica" font-size="17" lengthAdjust="spacing" textLength="132" x="41" y="32.7798">aws_rds_cluster</text></g><!--class aws_rds_cluster_snapshot--><g id="elem_aws_rds_cluster_snapshot"><rect codeLine="29" fill="#3D176E" height="39.7891" id="aws_rds_cluster_snapshot" rx="2.5" ry="2.5" style="stroke:#000D19;stroke-width:0.5;" width="258" x="145" y="106.79"/><ellipse cx="160" cy="126.6845" fill="#ADD1B2" rx="11" ry="11" style="stroke:#181818;stroke-width:1.0;"/><path d="M162.9688,132.3252 Q162.3906,132.622 161.75,132.7627 Q161.1094,132.9189 160.4063,132.9189 Q157.9063,132.9189 156.5781,131.2783 Q155.2656,129.622 155.2656,126.497 Q155.2656,123.372 156.5781,121.7158 Q157.9063,120.0595 160.4063,120.0595 Q161.1094,120.0595 161.75,120.2158 Q162.4063,120.372 162.9688,120.6689 L162.9688,123.3877 Q162.3438,122.8095 161.75,122.5439 Q161.1563,122.2627 160.5313,122.2627 Q159.1875,122.2627 158.5,123.3408 Q157.8125,124.4033 157.8125,126.497 Q157.8125,128.5908 158.5,129.6689 Q159.1875,130.7314 160.5313,130.7314 Q161.1563,130.7314 161.75,130.4658 Q162.3438,130.1845 162.9688,129.6064 L162.9688,132.3252 Z " fill="#000000"/><text fill="#D9B8FF" font-family="Helvetica" font-size="17" lengthAdjust="spacing" textLength="216" x="179" y="132.5698">aws_rds_cluster_snapshot</text></g><!--class aws_vpc--><g id="elem_aws_vpc"><rect codeLine="32" fill="#3D176E" height="39.7891" id="aws_vpc" rx="2.5" ry="2.5" style="stroke:#000D19;stroke-width:0.5;" width="112" x="218" y="7"/><ellipse cx="233" cy="26.8945" fill="#ADD1B2" rx="11" ry="11" style="stroke:#181818;stroke-width:1.0;"/><path d="M235.9688,32.5352 Q235.3906,32.832 234.75,32.9727 Q234.1094,33.1289 233.4063,33.1289 Q230.9063,33.1289 229.5781,31.4883 Q228.2656,29.832 228.2656,26.707 Q228.2656,23.582 229.5781,21.9258 Q230.9063,20.2695 233.4063,20.2695 Q234.1094,20.2695 234.75,20.4258 Q235.4063,20.582 235.9688,20.8789 L235.9688,23.5977 Q235.3438,23.0195 234.75,22.7539 Q234.1563,22.4727 233.5313,22.4727 Q232.1875,22.4727 231.5,23.5508 Q230.8125,24.6133 230.8125,26.707 Q230.8125,28.8008 231.5,29.8789 Q232.1875,30.9414 233.5313,30.9414 Q234.1563,30.9414 234.75,30.6758 Q235.3438,30.3945 235.9688,29.8164 L235.9688,32.5352 Z " fill="#000000"/><text fill="#D9B8FF" font-family="Helvetica" font-size="17" lengthAdjust="spacing" textLength="70" x="252" y="32.7798">aws_vpc</text></g><!--link aws_rds_cluster to aws_kms_key--><g id="link_aws_rds_cluster_aws_kms_key"><path codeLine="35" d="M97.47,47.09 C102.26,71.16 112.17,113.29 128,146.58 C138.4,168.44 150.9317,186.149 163.0817,201.469 " fill="none" id="aws_rds_cluster-to-aws_kms_key" style="stroke:#1A83AF;stroke-width:2.0;"/><polygon fill="#1A83AF" points="166.81,206.17,164.3516,196.6329,163.7031,202.2525,158.0835,201.604,166.81,206.17" style="stroke:#1A83AF;stroke-width:2.0;"/></g><!--link aws_rds_cluster to aws_rds_cluster_snapshot--><g id="link_aws_rds_cluster_aws_rds_cluster_snapshot"><path codeLine="36" d="M129.56,47.22 C161.12,64.36 201.7085,86.4044 233.2385,103.5444 " fill="none" id="aws_rds_cluster-to-aws_rds_cluster_snapshot" style="stroke:#1A83AF;stroke-width:2.0;"/><polygon fill="#1A83AF" points="238.51,106.41,232.5132,98.5973,234.1171,104.022,228.6924,105.6259,238.51,106.41" style="stroke:#1A83AF;stroke-width:2.0;"/></g><!--link aws_rds_cluster_snapshot to aws_kms_key--><g id="link_aws_rds_cluster_snapshot_aws_kms_key"><path codeLine="37" d="M256.02,147.01 C240.07,164.15 220.966,184.6663 205.026,201.8063 " fill="none" id="aws_rds_cluster_snapshot-to-aws_kms_key" style="stroke:#1A83AF;stroke-width:2.0;"/><polygon fill="#1A83AF" points="200.94,206.2,209.9982,202.3335,204.345,202.5386,204.14,196.8855,200.94,206.2" style="stroke:#1A83AF;stroke-width:2.0;"/></g><!--link aws_vpc to aws_rds_cluster_snapshot--><g id="link_aws_vpc_aws_rds_cluster_snapshot"><path codeLine="38" d="M274,47.22 C274,64.36 274,83.27 274,100.41 " fill="none" id="aws_vpc-to-aws_rds_cluster_snapshot" style="stroke:#1A83AF;stroke-width:2.0;"/><polygon fill="#1A83AF" points="274,106.41,278,97.41,274,101.41,270,97.41,274,106.41" style="stroke:#1A83AF;stroke-width:2.0;"/></g><!--SRC=[ZP11Jy9048Nl_HMRz4pIIXIuc5GIeXTYn9inPEZEqatRtMPcWQ3nlqj5pRg5uc4lxtrvxyqMMgB0kd5xKMEzGkA8IsqQ8AX5HcHtKrjP4h5Ie8QZq9nPuou2SwXHt6ErHQTp28ddGkUbGMPnvLbta9ThiXiZZ_6EmF31GkCyQbe1S-OSwTN6eJT6JbPZfK8o38s7CXtTO0Up996-aIH9P3e9aOjLlNV_4WlzXYBrFsrk7NPcTYg-gDwLBU6Dx1pwuv_T-0XIQhCMrvxsTDn41kcFlYX0sbrBAwZOhs67XDRj6vnshiB9MAhHIVZX71pbxTS9sF6oh0yFz-8zYZuycIGlyshJPlLOIpRGS65To6oR_2Y5MOENECt6mspsEhZr-o-3fsgZitjwUzfr_yl_1000]--></g></svg>

<svg xmlns="http://www.w3.org/2000/svg" width="410" height="252" viewBox="0 0 410 252"><rect width="158" height="39.789" x="104" y="206.58" fill="#3D176E" rx="2.5" ry="2.5" style="stroke:#000d19;stroke-width:.5"/><circle cx="119" cy="226.475" r="11" fill="#ADD1B2" style="stroke:#181818;stroke-width:1"/><path d="M121.969 232.115q-.578.297-1.219.438-.64.156-1.344.156-2.5 0-3.828-1.64-1.312-1.657-1.312-4.782t1.312-4.781q1.328-1.656 3.828-1.656.703 0 1.344.156.656.156 1.219.453v2.719q-.625-.578-1.219-.844-.594-.281-1.219-.281-1.344 0-2.031 1.078-.687 1.062-.687 3.156t.687 3.172q.688 1.062 2.031 1.062.625 0 1.219-.265.594-.281 1.219-.86z"/><text x="138" y="232.36" fill="#D9B8FF" font-family="Helvetica" font-size="17" textLength="116">aws_kms_key</text><rect width="174" height="39.789" x="7" y="7" fill="#3D176E" rx="2.5" ry="2.5" style="stroke:#000d19;stroke-width:.5"/><circle cx="22" cy="26.895" r="11" fill="#ADD1B2" style="stroke:#181818;stroke-width:1"/><path d="M24.969 32.535q-.578.297-1.219.438-.64.156-1.344.156-2.5 0-3.828-1.64-1.312-1.657-1.312-4.782t1.312-4.781q1.328-1.656 3.828-1.656.703 0 1.344.156.656.156 1.219.453v2.719q-.625-.578-1.219-.844-.594-.281-1.219-.281-1.343 0-2.031 1.078-.687 1.062-.687 3.156t.687 3.172q.688 1.062 2.031 1.062.625 0 1.219-.265.594-.281 1.219-.86z"/><text x="41" y="32.78" fill="#D9B8FF" font-family="Helvetica" font-size="17" textLength="132">aws_rds_cluster</text><rect width="258" height="39.789" x="145" y="106.79" fill="#3D176E" rx="2.5" ry="2.5" style="stroke:#000d19;stroke-width:.5"/><circle cx="160" cy="126.684" r="11" fill="#ADD1B2" style="stroke:#181818;stroke-width:1"/><path d="M162.969 132.325q-.578.297-1.219.438-.64.156-1.344.156-2.5 0-3.828-1.64-1.312-1.657-1.312-4.782t1.312-4.781q1.328-1.656 3.828-1.656.703 0 1.344.156.656.156 1.219.453v2.719q-.625-.579-1.219-.844-.594-.281-1.219-.281-1.344 0-2.031 1.078-.687 1.062-.687 3.156t.687 3.172q.688 1.062 2.031 1.062.625 0 1.219-.265.594-.281 1.219-.86z"/><text x="179" y="132.57" fill="#D9B8FF" font-family="Helvetica" font-size="17" textLength="216">aws_rds_cluster_snapshot</text><rect width="112" height="39.789" x="218" y="7" fill="#3D176E" rx="2.5" ry="2.5" style="stroke:#000d19;stroke-width:.5"/><circle cx="233" cy="26.895" r="11" fill="#ADD1B2" style="stroke:#181818;stroke-width:1"/><path d="M235.969 32.535q-.578.297-1.219.438-.64.156-1.344.156-2.5 0-3.828-1.64-1.312-1.657-1.312-4.782t1.312-4.781q1.328-1.656 3.828-1.656.703 0 1.344.156.656.156 1.219.453v2.719q-.625-.578-1.219-.844-.594-.281-1.219-.281-1.344 0-2.031 1.078-.687 1.062-.687 3.156t.687 3.172q.688 1.062 2.031 1.062.625 0 1.219-.265.594-.281 1.219-.86z"/><text x="252" y="32.78" fill="#D9B8FF" font-family="Helvetica" font-size="17" textLength="70">aws_vpc</text><path fill="none" d="M97.47 47.09c4.79 24.07 14.7 66.2 30.53 99.49 10.4 21.86 22.932 39.569 35.082 54.889" style="stroke:#1a83af;stroke-width:2"/><path fill="#1A83AF" d="m166.81 206.17-2.458-9.537-.649 5.62-5.62-.649z" style="stroke:#1a83af;stroke-width:2"/><path fill="none" d="M129.56 47.22c31.56 17.14 72.148 39.184 103.678 56.324" style="stroke:#1a83af;stroke-width:2"/><path fill="#1A83AF" d="m238.51 106.41-5.997-7.813 1.604 5.425-5.425 1.604z" style="stroke:#1a83af;stroke-width:2"/><path fill="none" d="M256.02 147.01c-15.95 17.14-35.054 37.656-50.994 54.796" style="stroke:#1a83af;stroke-width:2"/><path fill="#1A83AF" d="m200.94 206.2 9.058-3.867-5.653.206-.205-5.653z" style="stroke:#1a83af;stroke-width:2"/><path fill="none" d="M274 47.22v53.19" style="stroke:#1a83af;stroke-width:2"/><path fill="#1A83AF" d="m274 106.41 4-9-4 4-4-4z" style="stroke:#1a83af;stroke-width:2"/></svg>
